!!!OTL: "Schwere Wahl" SCHWARZBRAUNES MAEGDLEIN
!!!ARE: Europa, Mitteleuropa, Deutschland, Elsass
!!!SCT: Z1166
!!!YEM: Copyright 1995, estate of Helmut Schaffrath.
**kern
*ICvox
*Ivox
*M2/4
*k[b-e-]
*g:
{8d
=1
8g
8f#
8g
8a
=2
4b-
8a}
{8g
=3
8f#
8g
8a
8f#
=4
4d
8r}
{8d
=5
8g
8f#
8g
8a
=6
4b-
8a}
{8g
=7
8f#
8g
8a
8f#
=8
4d
8r}
{8b-
=9
12b-
12cc
12dd
12dd
12dd
12dd
=10
12dd
12cc
12cc
12cc
12cc
12cc}
{8b-
8b-
8b-
16a
16g
=11
8a
8d
4d}
=12
{4b-
8a
8g
=13
16f#
16g
16a
16f#
4g}
=14
{8g
8g
8b-
8b-
=15
16a
16a
16a
16a
8g}
==
!!!AGN: Liebes - Lied
!!!ONB: ESAC (Essen Associative Code) Database: ZUCCAL
!!!AMT: simple duple
!!!AIN: vox
!!!EED: Helmut Schaffrath
!!!EEV: 1.0
*-
